packages/webapp/public/images/template-logos/trello.svg

<svg width="62" height="62" viewBox="0 0 62 62" fill="none" xmlns="http://www.w3.org/2000/svg">
<path fill-rule="evenodd" clip-rule="evenodd" d="M46.9922 9.17773H14.4676C11.6696 9.17773 9.40034 11.444 9.39653 14.242V46.7186C9.39111 48.0671 9.92298 49.3622 10.8746 50.3177C11.8262 51.2731 13.1191 51.8102 14.4676 51.8102H46.9922C48.3395 51.8084 49.6307 51.2705 50.5808 50.3153C51.5309 49.36 52.0618 48.0659 52.0564 46.7186V14.242C52.0526 11.4466 49.7875 9.1815 46.9922 9.17773ZM27.7946 39.8843C27.7928 40.335 27.6115 40.7665 27.2909 41.0832C26.9703 41.4 26.5367 41.576 26.086 41.5725H18.9783C18.0487 41.5686 17.297 40.814 17.297 39.8843V18.7321C17.297 17.8025 18.0487 17.0478 18.9783 17.044H26.086C27.0167 17.0478 27.7703 17.8014 27.7741 18.7321L27.7946 39.8843ZM44.1969 30.1728C44.1969 30.624 44.0163 31.0565 43.6953 31.3737C43.3742 31.6909 42.9396 31.8663 42.4883 31.861H35.3806C34.4499 31.8571 33.6963 31.1035 33.6926 30.1728V18.7321C33.6963 17.8014 34.4499 17.0478 35.3806 17.044H42.4883C43.418 17.0478 44.1696 17.8025 44.1696 18.7321L44.1969 30.1728Z" fill="url(#paint0_linear_496_1348)"/>
<defs>
<linearGradient id="paint0_linear_496_1348" x1="30.747" y1="51.8102" x2="30.747" y2="9.17773" gradientUnits="userSpaceOnUse">
<stop stop-color="#0052CC"/>
<stop offset="1" stop-color="#2684FF"/>
</linearGradient>
</defs>
</svg>

<svg xmlns="http://www.w3.org/2000/svg" width="62" height="62" fill="none"><path fill-rule="evenodd" d="M46.992 9.178H14.468a5.07 5.07 0 0 0-5.071 5.064v32.477a5.07 5.07 0 0 0 5.071 5.092h32.525a5.07 5.07 0 0 0 5.064-5.092V14.242a5.07 5.07 0 0 0-5.064-5.064zM27.795 39.884c-.002.451-.183.882-.504 1.199s-.754.493-1.205.489h-7.108a1.69 1.69 0 0 1-1.681-1.688V18.732a1.69 1.69 0 0 1 1.681-1.688h7.108c.931.004 1.684.757 1.688 1.688l.021 21.152zm16.402-9.712a1.69 1.69 0 0 1-1.709 1.688h-7.108c-.931-.004-1.684-.758-1.688-1.688V18.732c.004-.931.757-1.684 1.688-1.688h7.108a1.69 1.69 0 0 1 1.681 1.688l.027 11.441z" fill="url(#A)"/><defs><linearGradient id="A" x1="30.747" y1="51.81" x2="30.747" y2="9.178" gradientUnits="userSpaceOnUse"><stop stop-color="#0052cc"/><stop offset="1" stop-color="#2684ff"/></linearGradient></defs></svg>
